X:91
T:Belle View
M:4/4
L:1/8
K:A
%% midi voice instrument = "22"
|: efg |\
afec A2 AB | cBAc BAFE | FA (3AAA ABce | feaf ecfg |
afec (3AAA AB | cBAc BAFE | FA (3AAA ABcf | eBcB A :|
|: cde & |\
feae feae | bac’a baeg | afec BAFB | cB (3BBB B2 (3efg |
| afec (3AAA AB | cBAc BAFE | FA (3AAA ABcf | eBcB A :|
